icons/1_Primary/ONLYOFFICE.svg

<svg width="1024" height="1024" viewBox="0 0 1024 1024" fill="none" xmlns="http://www.w3.org/2000/svg">
<g clip-path="url(#clip0_2_3027)">
<path d="M512 1024C794.77 1024 1024 794.77 1024 512C1024 229.23 794.77 0 512 0C229.23 0 0 229.23 0 512C0 794.77 229.23 1024 512 1024Z" fill="#F8C18C"/>
<path d="M479.999 742.51L269.449 645.17C251.509 636.67 251.509 623.54 269.449 615.81L342.759 581.81L479.239 645.16C497.179 653.66 526.029 653.66 543.239 645.16L679.719 581.81L753.029 615.81C770.969 624.31 770.969 637.44 753.029 645.17L542.419 742.51C525.999 750.24 497.179 750.24 479.999 742.51ZM479.999 622.75L269.449 525.41C251.509 516.91 251.509 503.78 269.449 496.05L341.199 462.83L479.999 527C497.939 535.5 526.789 535.5 543.999 527L682.799 462.84L754.549 496.06C772.489 504.56 772.489 517.69 754.549 525.42L543.999 622.75C525.999 631.25 497.179 631.25 479.999 622.75ZM479.999 622.75L269.449 525.41C251.509 516.91 251.509 503.78 269.449 496.05L341.199 462.83L479.999 527C497.939 535.5 526.789 535.5 543.999 527L682.799 462.84L754.549 496.06C772.489 504.56 772.489 517.69 754.549 525.42L543.999 622.75C525.999 631.25 497.179 631.25 479.999 622.75ZM479.999 506.1L269.449 408.76C251.509 400.26 251.509 387.13 269.449 379.4L479.999 282.07C497.939 273.57 526.789 273.57 543.999 282.07L754.569 379.41C772.509 387.91 772.509 401.04 754.569 408.77L543.999 506.11C525.999 513.83 497.179 513.83 479.999 506.11V506.1Z" fill="white"/>
</g>
<defs>
<clipPath id="clip0_2_3027">
<rect width="1024" height="1024" fill="white"/>
</clipPath>
</defs>
</svg>

<svg xmlns="http://www.w3.org/2000/svg" viewBox="0 0 1024 1024">
   <circle cx="512" cy="512" r="512" style="fill:#ff6f3d"/>
   <path d="m480 742.51-210.55-97.34c-17.94-8.5-17.94-21.63 0-29.36l73.31-34 136.48 63.35c17.94 8.5 46.79 8.5 64 0l136.48-63.35 73.31 34c17.94 8.5 17.94 21.63 0 29.36l-210.61 97.34c-16.42 7.73-45.24 7.73-62.42 0Zm0-119.76-210.55-97.34c-17.94-8.5-17.94-21.63 0-29.36l71.75-33.22L480 527c17.94 8.5 46.79 8.5 64 0l138.8-64.16 71.75 33.22c17.94 8.5 17.94 21.63 0 29.36L544 622.75c-18 8.5-46.82 8.5-64 0Zm0 0-210.55-97.34c-17.94-8.5-17.94-21.63 0-29.36l71.75-33.22L480 527c17.94 8.5 46.79 8.5 64 0l138.8-64.16 71.75 33.22c17.94 8.5 17.94 21.63 0 29.36L544 622.75c-18 8.5-46.82 8.5-64 0Zm0-116.65-210.55-97.34c-17.94-8.5-17.94-21.63 0-29.36L480 282.07c17.94-8.5 46.79-8.5 64 0l210.57 97.34c17.94 8.5 17.94 21.63 0 29.36L544 506.11c-18 7.72-46.82 7.72-64 0Z" style="fill:#fff"/>
</svg>
